images/chr-logo-white.svg

<svg height="282.23999" viewBox="0 0 1091.52 282.23999" width="1091.52" xmlns="http://www.w3.org/2000/svg" xmlns:xlink="http://www.w3.org/1999/xlink"><clipPath id="a"><path d="m0 211.68h818.64v-211.68h-818.64z"/></clipPath><g clip-path="url(#a)" transform="matrix(1.3333333 0 0 -1.3333333 0 282.24)"><g fill="#fff"><path d="m0 0c-2.632-3.543-7.188-8.402-12.858-8.402h-12.655c-2.228 0-4.657.809-6.277 1.822-2.127 1.215-6.176 5.365-7.391 7.187-1.215 1.824-1.62 3.848-1.62 5.772v31.891c0 1.923.405 3.847 1.62 5.669 1.215 1.721 5.264 6.075 7.391 7.29 1.62.911 4.049 1.822 6.277 1.822h12.655c5.67 0 10.226-4.961 12.858-8.403.81-1.114 1.215-1.923 2.126-3.544l-10.327-2.935s-3.037 3.746-4.556 4.657c-.101.101-.304.101-.405.101h-11.946c-.203 0-.405-.101-.405-.101-1.316-.709-3.544-2.835-4.556-4.455-.101-.202-.101-.911-.101-1.113v-30.779c0-1.214 3.138-3.846 4.657-4.657.101-.1.607-.1.708-.1h11.542c.101 0 .304 0 .506.1 2.127 1.013 4.556 4.759 4.556 4.759l10.327-2.733c-.81-1.823-1.316-2.734-2.126-3.848" transform="translate(253.6937 83.5107)"/><path d="m265.136 88.371h12.453v-12.757h-12.453z"/><path d="m0 0v25.007h-22.071v-25.007h-10.63v60.543h10.63v-25.412h22.071v25.412h10.631v-60.543z" transform="translate(320.9217 75.6142)"/><path d="m342.184 88.371h12.453v-12.757h-12.453z"/><path d="m0 0s0 .507-.102.709c-.607 1.113-2.227 3.139-3.239 3.24h-18.325v-16.401h17.818c.911 0 2.937 1.924 3.746 3.341 0 0 .102.202.102.405zm8.808-14.983c-.912-1.317-4.05-4.354-5.467-5.367-.81-.607-1.721-1.113-2.632-1.417l12.048-24.703h-11.542l-11.238 23.894h-11.643v-23.894h-10.63v60.543h28.448c2.43 0 5.164-.81 7.189-2.227 1.417-1.013 4.555-4.252 5.467-5.569 1.214-1.823 1.822-4.049 1.822-6.175v-8.91c0-2.227-.608-4.353-1.822-6.175" transform="translate(420.6483 122.0839)"/><path d="m0 0s0-.304.101-.405c1.215-1.823 3.341-3.745 4.455-4.354.202-.1.405-.1.506-.1h14.579s.303 0 .505.1c1.115.609 3.241 2.531 4.456 4.354.101.203.101.405.101.405v31.284s0 .404-.101.506c-1.215 1.822-3.341 3.848-4.456 4.455-.202.101-.404.101-.505.101h-14.579s-.405 0-.506-.101c-1.114-.607-3.24-2.633-4.455-4.455-.101-.202-.101-.506-.101-.506zm33.714-5.872c-1.317-1.721-5.265-6.074-7.392-7.289-1.619-1.013-4.15-1.822-6.276-1.822h-15.389c-2.227 0-4.657.809-6.277 1.822-2.126 1.215-6.176 5.568-7.391 7.289-1.215 1.822-1.62 3.848-1.62 5.77v31.69c0 1.923.405 3.948 1.62 5.77 1.215 1.721 5.265 6.075 7.391 7.289 1.62 1.013 4.05 1.823 6.277 1.823h15.389c2.126 0 4.657-.81 6.276-1.823 2.127-1.214 6.075-5.568 7.392-7.289 1.215-1.822 1.619-3.847 1.619-5.77v-31.69c0-1.922-.404-3.948-1.619-5.77" transform="translate(453.8582 90.0917)"/><path d="m0 0v7.187c0 .305-.101.507-.101.507-.912 1.62-2.835 3.443-3.746 3.443h-17.717v-15.187h17.818c.911 0 2.936 1.822 3.645 3.341 0 0 .101.304.101.709m0 25.007v7.188c0 .202-.101.506-.101.506-.912 1.62-2.835 3.544-3.746 3.544h-17.717v-15.288h17.818c.911 0 2.936 1.822 3.645 3.341 0 0 .101.202.101.709m8.909-31.486c-.911-1.317-3.948-4.455-5.365-5.467-2.025-1.418-4.86-2.228-7.29-2.228h-28.448v60.543h28.448c2.633 0 5.265-.911 7.29-2.329 1.417-1.012 4.454-4.15 5.365-5.467 1.317-1.924 1.722-4.252 1.722-6.277v-7.491c0-4.253-1.62-6.48-3.948-8.809 2.328-2.328 3.948-4.454 3.948-8.707v-7.694c0-2.126-.507-4.253-1.722-6.074" transform="translate(534.4486 89.788)"/><path d="m559.458 136.157h10.63v-60.543h-10.63z"/><path d="m0 0-20.957 40.193v-40.193h-10.63v60.543h11.44l20.754-40.699v40.699h10.631v-60.543z" transform="translate(617.2679 75.6142)"/><path d="m0 0c-1.215-1.823-5.265-6.074-7.391-7.289-1.62-.911-4.151-1.822-6.277-1.822h-17.616c-5.973 0-10.226 4.859-12.858 8.402-.81 1.114-1.012 1.619-1.822 3.139l10.023 3.341s2.025-2.834 4.455-4.658c0 0 .202-.1.709-.1h16.603c.404 0 .608.1.608.1 1.518.811 4.555 3.848 4.555 4.658v5.973c0 .911-.709 1.62-1.215 1.721l-26.323 7.492c-5.163 1.418-7.896 6.379-7.896 11.035v5.468c0 1.721.303 3.948 1.518 5.77s5.366 6.075 7.492 7.29c1.62.911 4.05 1.822 6.277 1.822h14.984c6.074 0 10.226-4.961 12.858-8.403.809-1.114 1.316-2.025 2.024-3.543l-10.225-2.936s-2.329 3.341-4.455 4.657c0 0-.101.101-.607.101h-14.275c-.405 0-.608-.101-.608-.101-1.619-.81-4.353-3.645-4.353-4.455v-5.062c0-.912.607-1.62 1.114-1.721l26.424-7.694c5.163-1.417 7.897-6.48 7.897-11.036v-6.378c0-1.721-.304-3.949-1.62-5.771" transform="translate(685.7094 84.2197)"/><path d="m0 0s0-.304.101-.405c1.215-1.823 3.341-3.745 4.455-4.354.202-.1.405-.1.506-.1h14.579s.303 0 .505.1c1.115.609 3.241 2.531 4.456 4.354.101.203.101.405.101.405v31.284s0 .404-.101.506c-1.215 1.822-3.341 3.848-4.456 4.455-.202.101-.404.101-.505.101h-14.579s-.405 0-.506-.101c-1.114-.607-3.24-2.633-4.455-4.455-.101-.202-.101-.506-.101-.506zm33.714-5.872c-1.317-1.721-5.265-6.074-7.392-7.289-1.619-1.013-4.15-1.822-6.276-1.822h-15.389c-2.227 0-4.657.809-6.277 1.822-2.126 1.215-6.176 5.568-7.391 7.289-1.215 1.822-1.62 3.848-1.62 5.77v31.69c0 1.923.405 3.948 1.62 5.77 1.215 1.721 5.265 6.075 7.391 7.289 1.62 1.013 4.05 1.823 6.277 1.823h15.389c2.126 0 4.657-.81 6.276-1.823 2.127-1.214 6.075-5.568 7.392-7.289 1.215-1.822 1.619-3.847 1.619-5.77v-31.69c0-1.922-.404-3.948-1.619-5.77" transform="translate(709.4027 90.0917)"/><path d="m0 0-20.957 40.193v-40.193h-10.63v60.543h11.44l20.754-40.699v40.699h10.631v-60.543z" transform="translate(789.3861 75.6142)"/></g><path d="m0 0 16.342 9.436v-39.306l3.73-2.153 3.735 2.156v39.302l16.34-9.435 3.733 6.465-23.807 13.744-23.805-13.744z" fill="#00a3e0" transform="translate(73.9124 151.8066)"/><path d="m0 0-16.341 9.435 34.038 19.651v4.309l-3.735 2.155-34.036-19.651v18.87h-7.464v-27.49l23.806-13.744z" fill="#00a3e0" transform="translate(64.2152 65.4726)"/><path d="m0 0-68.507-39.554-68.506 39.554v79.104l68.506 39.553 68.507-39.553zm-68.507 127.276-75.971-43.862v-87.725l75.971-43.862 75.971 43.862v87.725z" fill="#00a3e0" transform="translate(162.493 66.288)"/><path d="m0 0 16.341-9.435-46.114-26.625-46.11 26.625 16.341 9.435-3.733 6.465-23.806-13.745v-27.489h7.465v18.87l46.115-26.625-.002-53.246-16.342 9.435-3.733-6.465 23.806-13.744 23.807 13.745-3.733 6.465-16.341-9.435v53.249l46.112 26.621v-18.87h7.465v27.489l-23.806 13.744z" fill="#00a3e0" transform="translate(123.7577 146.2079)"/><path d="m0 0v-18.869l-34.038 19.651-3.73-2.153v-4.313l34.036-19.65-16.341-9.435 3.732-6.464 23.805 13.744v27.489z" fill="#00a3e0" transform="translate(143.8309 100.2411)"/><path d="m0 0h-.987v4.995h-.03l-1.961-4.995h-.623l-1.961 4.995h-.029v-4.995h-.988v5.983h1.525l1.786-4.546 1.758 4.546h1.51zm-7.799 5.185h-1.873v-5.185h-.988v5.185h-1.874v.798h4.735z" fill="#00a3e0" transform="translate(171.3324 46.0546)"/></g></svg>

<?xml version="1.0" encoding="UTF-8" standalone="no"?>
<svg xmlns:dc="http://purl.org/dc/elements/1.1/"
     xmlns:cc="http://creativecommons.org/ns#"
     xmlns:rdf="http://www.w3.org/1999/02/22-rdf-syntax-ns#"
     xmlns:svg="http://www.w3.org/2000/svg"
     xmlns="http://www.w3.org/2000/svg"
     viewBox="0 0 1091.52 282.23999"
     height="282.23999"
     width="1091.52"
     xml:space="preserve"
     id="svg2"
     version="1.1">
  <metadata id="metadata8">
    <rdf:RDF>
      <cc:Work rdf:about="">
        <dc:format>image/svg+xml</dc:format>
        <dc:type rdf:resource="http://purl.org/dc/dcmitype/StillImage" />
      </cc:Work>
    </rdf:RDF>
  </metadata>
  <defs id="defs6">
    <clipPath id="clipPath18" clipPathUnits="userSpaceOnUse">
      <path id="path16" d="M 0,211.68 H 818.64 V 0 H 0 Z" />
    </clipPath>
  </defs>
  <g transform="matrix(1.3333333,0,0,-1.3333333,0,282.24)" id="g10">
    <g id="g12">
      <g clip-path="url(#clipPath18)" id="g14">
        <g transform="translate(253.6937,83.5107)" id="g20">
          <path id="path22"
                 style="fill:#ffffff;fill-opacity:1;fill-rule:nonzero;stroke:none"
                 d="m 0,0 c -2.632,-3.543 -7.188,-8.402 -12.858,-8.402 h -12.655 c -2.228,0 -4.657,0.809 -6.277,1.822 -2.127,1.215 -6.176,5.365 -7.391,7.187 -1.215,1.824 -1.62,3.848 -1.62,5.772 V 38.27 c 0,1.923 0.405,3.847 1.62,5.669 1.215,1.721 5.264,6.075 7.391,7.29 1.62,0.911 4.049,1.822 6.277,1.822 h 12.655 c 5.67,0 10.226,-4.961 12.858,-8.403 0.81,-1.114 1.215,-1.923 2.126,-3.544 L -8.201,38.169 c 0,0 -3.037,3.746 -4.556,4.657 -0.101,0.101 -0.304,0.101 -0.405,0.101 h -11.946 c -0.203,0 -0.405,-0.101 -0.405,-0.101 -1.316,-0.709 -3.544,-2.835 -4.556,-4.455 -0.101,-0.202 -0.101,-0.911 -0.101,-1.113 V 6.479 c 0,-1.214 3.138,-3.846 4.657,-4.657 0.101,-0.1 0.607,-0.1 0.708,-0.1 h 11.542 c 0.101,0 0.304,0 0.506,0.1 2.127,1.013 4.556,4.759 4.556,4.759 L 2.126,3.848 C 1.316,2.025 0.81,1.114 0,0" />
        </g>
        <path id="path24"
               style="fill:#ffffff;fill-opacity:1;fill-rule:nonzero;stroke:none"
               d="m 265.136,88.371 h 12.453 V 75.614 h -12.453 z" />
        <g transform="translate(320.9217,75.6142)" id="g26">
        <path id="path28"
                 style="fill:#ffffff;fill-opacity:1;fill-rule:nonzero;stroke:none"
                 d="M 0,0 V 25.007 H -22.071 V 0 h -10.63 v 60.543 h 10.63 V 35.131 H 0 V 60.543 H 10.631 L 10.631,0 Z" />
        </g>
        <path id="path30"
               style="fill:#ffffff;fill-opacity:1;fill-rule:nonzero;stroke:none"
               d="m 342.184,88.371 h 12.453 V 75.614 h -12.453 z" />
        <g transform="translate(420.6483,122.0839)" id="g32">
          <path id="path34"
                 style="fill:#ffffff;fill-opacity:1;fill-rule:nonzero;stroke:none"
                 d="m 0,0 c 0,0 0,0.507 -0.102,0.709 -0.607,1.113 -2.227,3.139 -3.239,3.24 h -18.325 v -16.401 h 17.818 c 0.911,0 2.937,1.924 3.746,3.341 0,0 0.102,0.202 0.102,0.405 z M 8.808,-14.983 C 7.896,-16.3 4.758,-19.337 3.341,-20.35 2.531,-20.957 1.62,-21.463 0.709,-21.767 L 12.757,-46.47 H 1.215 l -11.238,23.894 H -21.666 V -46.47 h -10.63 v 60.543 h 28.448 c 2.43,0 5.164,-0.81 7.189,-2.227 C 4.758,10.833 7.896,7.594 8.808,6.277 10.022,4.454 10.63,2.228 10.63,0.102 v -8.91 c 0,-2.227 -0.608,-4.353 -1.822,-6.175" />
        </g>
        <g transform="translate(453.8582,90.0917)" id="g36">
          <path id="path38"
                 style="fill:#ffffff;fill-opacity:1;fill-rule:nonzero;stroke:none"
                 d="m 0,0 c 0,0 0,-0.304 0.101,-0.405 1.215,-1.823 3.341,-3.745 4.455,-4.354 0.202,-0.1 0.405,-0.1 0.506,-0.1 h 14.579 c 0,0 0.303,0 0.505,0.1 1.115,0.609 3.241,2.531 4.456,4.354 C 24.703,-0.202 24.703,0 24.703,0 v 31.284 c 0,0 0,0.404 -0.101,0.506 -1.215,1.822 -3.341,3.848 -4.456,4.455 -0.202,0.101 -0.404,0.101 -0.505,0.101 H 5.062 c 0,0 -0.405,0 -0.506,-0.101 C 3.442,35.638 1.316,33.612 0.101,31.79 0,31.588 0,31.284 0,31.284 Z m 33.714,-5.872 c -1.317,-1.721 -5.265,-6.074 -7.392,-7.289 -1.619,-1.013 -4.15,-1.822 -6.276,-1.822 H 4.657 c -2.227,0 -4.657,0.809 -6.277,1.822 -2.126,1.215 -6.176,5.568 -7.391,7.289 -1.215,1.822 -1.62,3.848 -1.62,5.77 v 31.69 c 0,1.923 0.405,3.948 1.62,5.77 1.215,1.721 5.265,6.075 7.391,7.289 C 0,45.66 2.43,46.47 4.657,46.47 h 15.389 c 2.126,0 4.657,-0.81 6.276,-1.823 2.127,-1.214 6.075,-5.568 7.392,-7.289 1.215,-1.822 1.619,-3.847 1.619,-5.77 v -31.69 c 0,-1.922 -0.404,-3.948 -1.619,-5.77" />
        </g>
        <g transform="translate(534.4486,89.788)" id="g40">
          <path id="path42"
                 style="fill:#ffffff;fill-opacity:1;fill-rule:nonzero;stroke:none"
                 d="m 0,0 v 7.187 c 0,0.305 -0.101,0.507 -0.101,0.507 -0.912,1.62 -2.835,3.443 -3.746,3.443 H -21.564 V -4.05 h 17.818 c 0.911,0 2.936,1.822 3.645,3.341 0,0 0.101,0.304 0.101,0.709 m 0,25.007 v 7.188 c 0,0.202 -0.101,0.506 -0.101,0.506 -0.912,1.62 -2.835,3.544 -3.746,3.544 H -21.564 V 20.957 h 17.818 c 0.911,0 2.936,1.822 3.645,3.341 0,0 0.101,0.202 0.101,0.709 M 8.909,-6.479 c -0.911,-1.317 -3.948,-4.455 -5.365,-5.467 -2.025,-1.418 -4.86,-2.228 -7.29,-2.228 h -28.448 v 60.543 h 28.448 c 2.633,0 5.265,-0.911 7.29,-2.329 1.417,-1.012 4.454,-4.15 5.365,-5.467 1.317,-1.924 1.722,-4.252 1.722,-6.277 v -7.491 c 0,-4.253 -1.62,-6.48 -3.948,-8.809 2.328,-2.328 3.948,-4.454 3.948,-8.707 v -7.694 c 0,-2.126 -0.507,-4.253 -1.722,-6.074" />
        </g>
        <path id="path44"
              style="fill:#ffffff;fill-opacity:1;fill-rule:nonzero;stroke:none"
              d="m 559.458,136.157 h 10.63 V 75.614 h -10.63 z" />
        <g transform="translate(617.2679,75.6142)" id="g46">
          <path id="path48"
                 style="fill:#ffffff;fill-opacity:1;fill-rule:nonzero;stroke:none"
                 d="M 0,0 -20.957,40.193 V 0 h -10.63 v 60.543 h 11.44 L 0.607,19.844 V 60.543 H 11.238 L 11.238,0 Z" />
        </g>
        <g transform="translate(685.7094,84.2197)" id="g50">
          <path id="path52"
                 style="fill:#ffffff;fill-opacity:1;fill-rule:nonzero;stroke:none"
                 d="m 0,0 c -1.215,-1.823 -5.265,-6.074 -7.391,-7.289 -1.62,-0.911 -4.151,-1.822 -6.277,-1.822 h -17.616 c -5.973,0 -10.226,4.859 -12.858,8.402 -0.81,1.114 -1.012,1.619 -1.822,3.139 l 10.023,3.341 c 0,0 2.025,-2.834 4.455,-4.658 0,0 0.202,-0.1 0.709,-0.1 h 16.603 c 0.404,0 0.608,0.1 0.608,0.1 1.518,0.811 4.555,3.848 4.555,4.658 v 5.973 c 0,0.911 -0.709,1.62 -1.215,1.721 l -26.323,7.492 c -5.163,1.418 -7.896,6.379 -7.896,11.035 v 5.468 c 0,1.721 0.303,3.948 1.518,5.77 1.215,1.822 5.366,6.075 7.492,7.29 1.62,0.911 4.05,1.822 6.277,1.822 h 14.984 c 6.074,0 10.226,-4.961 12.858,-8.403 C -0.507,42.825 0,41.914 0.708,40.396 L -9.517,37.46 c 0,0 -2.329,3.341 -4.455,4.657 0,0 -0.101,0.101 -0.607,0.101 h -14.275 c -0.405,0 -0.608,-0.101 -0.608,-0.101 -1.619,-0.81 -4.353,-3.645 -4.353,-4.455 V 32.6 c 0,-0.912 0.607,-1.62 1.114,-1.721 L -6.277,23.185 C -1.114,21.768 1.62,16.705 1.62,12.149 V 5.771 C 1.62,4.05 1.316,1.822 0,0" />
        </g>
        <g transform="translate(709.4027,90.0917)" id="g54">
          <path id="path56"
                 style="fill:#ffffff;fill-opacity:1;fill-rule:nonzero;stroke:none"
                 d="m 0,0 c 0,0 0,-0.304 0.101,-0.405 1.215,-1.823 3.341,-3.745 4.455,-4.354 0.202,-0.1 0.405,-0.1 0.506,-0.1 h 14.579 c 0,0 0.303,0 0.505,0.1 1.115,0.609 3.241,2.531 4.456,4.354 C 24.703,-0.202 24.703,0 24.703,0 v 31.284 c 0,0 0,0.404 -0.101,0.506 -1.215,1.822 -3.341,3.848 -4.456,4.455 -0.202,0.101 -0.404,0.101 -0.505,0.101 H 5.062 c 0,0 -0.405,0 -0.506,-0.101 C 3.442,35.638 1.316,33.612 0.101,31.79 0,31.588 0,31.284 0,31.284 Z m 33.714,-5.872 c -1.317,-1.721 -5.265,-6.074 -7.392,-7.289 -1.619,-1.013 -4.15,-1.822 -6.276,-1.822 H 4.657 c -2.227,0 -4.657,0.809 -6.277,1.822 -2.126,1.215 -6.176,5.568 -7.391,7.289 -1.215,1.822 -1.62,3.848 -1.62,5.77 v 31.69 c 0,1.923 0.405,3.948 1.62,5.77 1.215,1.721 5.265,6.075 7.391,7.289 C 0,45.66 2.43,46.47 4.657,46.47 h 15.389 c 2.126,0 4.657,-0.81 6.276,-1.823 2.127,-1.214 6.075,-5.568 7.392,-7.289 1.215,-1.822 1.619,-3.847 1.619,-5.77 v -31.69 c 0,-1.922 -0.404,-3.948 -1.619,-5.77" />
        </g>
        <g transform="translate(789.3861,75.6142)" id="g58">
          <path id="path60"
                 style="fill:#ffffff;fill-opacity:1;fill-rule:nonzero;stroke:none"
                 d="M 0,0 -20.957,40.193 V 0 h -10.63 v 60.543 h 11.44 L 0.607,19.844 V 60.543 H 11.238 L 11.238,0 Z" />
        </g>
        <g transform="translate(73.9124,151.8066)" id="g62">
          <path id="path64"
                 style="fill:#00a3e0;fill-opacity:1;fill-rule:nonzero;stroke:none"
                 d="M 0,0 16.342,9.436 V -29.87 l 3.73,-2.153 3.735,2.156 V 9.435 L 40.147,0 43.88,6.465 20.073,20.209 -3.732,6.465 Z" />
        </g>
        <g transform="translate(64.2152,65.4726)" id="g66">
          <path id="path68"
                 style="fill:#00a3e0;fill-opacity:1;fill-rule:nonzero;stroke:none"
                 d="m 0,0 -16.341,9.435 34.038,19.651 v 4.309 L 13.962,35.55 -20.074,15.899 v 18.87 h -7.464 V 7.279 L -3.732,-6.465 Z" />
        </g>
        <g transform="translate(162.493,66.288)" id="g70">
          <path id="path72"
                 style="fill:#00a3e0;fill-opacity:1;fill-rule:nonzero;stroke:none"
                 d="M 0,0 -68.507,-39.554 -137.013,0 V 79.104 L -68.507,118.657 0,79.104 Z M -68.507,127.276 -144.478,83.414 V -4.311 l 75.971,-43.862 75.971,43.862 v 87.725 z" />
        </g>
        <g transform="translate(123.7577,146.2079)" id="g74">
          <path id="path76"
                 style="fill:#00a3e0;fill-opacity:1;fill-rule:nonzero;stroke:none"
                 d="M 0,0 16.341,-9.435 -29.773,-36.06 -75.883,-9.435 -59.542,0 -63.275,6.465 -87.081,-7.28 v -27.489 h 7.465 v 18.87 l 46.115,-26.625 -0.002,-53.246 -16.342,9.435 -3.733,-6.465 23.806,-13.744 23.807,13.745 -3.733,6.465 -16.341,-9.435 v 53.249 l 46.112,26.621 v -18.87 h 7.465 V -7.28 L 3.732,6.464 Z" />
        </g>
        <g transform="translate(143.8309,100.2411)" id="g78">
          <path id="path80"
                 style="fill:#00a3e0;fill-opacity:1;fill-rule:nonzero;stroke:none"
                 d="m 0,0 v -18.869 l -34.038,19.651 -3.73,-2.153 v -4.313 l 34.036,-19.65 -16.341,-9.435 3.732,-6.464 23.805,13.744 V 0 Z" />
        </g>
        <g transform="translate(171.3324,46.0546)" id="g82">
          <path id="path84"
                 style="fill:#00a3e0;fill-opacity:1;fill-rule:nonzero;stroke:none"
                 d="m 0,0 h -0.987 v 4.995 h -0.03 L -2.978,0 H -3.601 L -5.562,4.995 H -5.591 V 0 h -0.988 v 5.983 h 1.525 L -3.268,1.437 -1.51,5.983 H 0 Z M -7.799,5.185 H -9.672 V 0 h -0.988 v 5.185 h -1.874 v 0.798 h 4.735 z" />
        </g>
      </g>
    </g>
  </g>
</svg>
